Papirus/64x64/apps/idevice.svg

<svg width="64" height="64" version="1.1" xmlns="http://www.w3.org/2000/svg">
 <g>
  <rect x="10" y="9" width="28" height="48" rx="2.3333333" ry="2.0869565" style="opacity:.2"/>
  <rect x="10" y="8" width="28" height="48" rx="2.3333333" ry="2.0869565" style="fill:#8e8e8e"/>
  <rect x="12" y="11" width="24" height="39" rx="1.2" ry="1.0833334" style="opacity:.6"/>
  <path d="m11.75 8.0000004c-0.9695 0-1.75 1.0035-1.75 2.2499996v0.75c0-1.2464996 1.363834-2.2499996 2.333334-2.2499996l23.333332-2e-7c0.9695 0 2.333334 1.0035002 2.333334 2.2499998v-0.75c0-1.2464996-0.7805-2.2499996-1.75-2.2499996z" style="fill:#ffffff;opacity:.2"/>
  <circle cx="24" cy="53" r="2" style="fill:#474747"/>
  <circle cx="48" cy="47.000004" r="15.999999" style="fill-opacity:.2"/>
  <circle cx="48" cy="45.999996" r="15.999997" style="fill:#fc9300"/>
 </g>
 <g>
  <path d="m44.376953 38.001953c-0.111318-0.0034-0.224864-0.0032-0.341797 2e-3 -2.093754-0.0818-3.960597 1.311003-4.898437 2.996094-1.776627 3.1922-1.229306 7.552338 0 11 0.872835 2.447919 2.954143 6 4.923828 6s1.957114-1 3.939453-1c1.987191 0 1.974713 1 3.949219 1 1.974507 0 4.115677-3.923863 4.935547-6 1.15947-2.936101 1.780975-7.8078 0-11-0.940137-1.685091-2.811277-3.077894-4.910157-2.996094-1.875503-0.08179-3.013306 1-3.974609 1-0.899021 0-1.953269-0.950519-3.623047-1.001953z" style="fill:#ffffff"/>
  <path d="m45 33c3 0 2.996481 2.234247 3 5-3 0-3-2-3-5z" style="fill:#ffffff"/>
  <circle cx="58" cy="45" r="3.9999995" style="fill:#fc9300"/>
 </g>
</svg>

<svg xmlns="http://www.w3.org/2000/svg" width="64" height="64" version="1.1">
 <rect style="opacity:0.2" width="38" height="55" x="13" y="6" rx="2.6" ry="2.6"/>
 <rect style="fill:#8e8e8e" width="38" height="55" x="13" y="5" rx="2.6" ry="2.6"/>
 <rect style="opacity:0.6" width="32" height="44" x="16" y="8" rx="1.3" ry="1.315"/>
 <circle style="fill:#474747" cx="32" cy="56" r="2"/>
 <circle style="opacity:0.2" cx="48" cy="47" r="16"/>
 <circle style="fill:#fc9300" cx="48" cy="46" r="16"/>
 <path style="fill:#ffffff" d="M 44.377,38.002 C 44.266,37.999 44.152,37.999 44.035,38.004 41.941,37.922 40.075,39.315 39.137,41 37.36,44.192 37.907,48.552 39.137,52 40.01,54.448 42.091,58 44.061,58 46.03,58 46.018,57 48,57 49.987,57 49.975,58 51.949,58 53.924,58 56.065,54.076 56.885,52 58.044,49.064 58.666,44.192 56.885,41 55.945,39.315 54.073,37.922 51.975,38.004 50.099,37.922 48.961,39.004 48,39.004 47.101,39.004 46.047,38.053 44.377,38.002 Z"/>
 <path style="fill:#ffffff" d="M 45,33 C 48,33 47.996,35.234 48,38 45,38 45,36 45,33 Z"/>
 <circle style="fill:#fc9300" cx="58" cy="45" r="4"/>
 <path style="fill:#ffffff;opacity:0.2" d="M 15.6 5 C 14.159 5 13 6.1592 13 7.5996 L 13 8.5996 C 13 7.1592 14.159 6 15.6 6 L 48.4 6 C 49.841 6 51 7.1592 51 8.5996 L 51 7.5996 C 51 6.1592 49.841 5 48.4 5 L 15.6 5 z"/>
</svg>
